public/mastodon.svg

<svg xmlns="http://www.w3.org/2000/svg" width="65" height="65" viewBox="0 0 61 65" fill="none">
<path d="M60.7539 14.3904C59.8143 7.40642 53.7273 1.90257 46.5117 0.836066C45.2943 0.655854 40.6819 0 29.9973 0H29.9175C19.2299 0 16.937 0.655854 15.7196 0.836066C8.70488 1.87302 2.29885 6.81852 0.744617 13.8852C-0.00294988 17.3654 -0.0827298 21.2237 0.0561464 24.7629C0.254119 29.8384 0.292531 34.905 0.753482 39.9598C1.07215 43.3175 1.62806 46.6484 2.41704 49.9276C3.89445 55.9839 9.87499 61.0239 15.7344 63.0801C22.0077 65.2244 28.7542 65.5804 35.2184 64.1082C35.9295 63.9428 36.6318 63.7508 37.3252 63.5321C38.8971 63.0329 40.738 62.4745 42.0913 61.4937C42.1099 61.4799 42.1251 61.4621 42.1358 61.4417C42.1466 61.4212 42.1526 61.3986 42.1534 61.3755V56.4773C42.153 56.4557 42.1479 56.4345 42.1383 56.4151C42.1287 56.3958 42.1149 56.3788 42.0979 56.3655C42.0809 56.3522 42.0611 56.3429 42.04 56.3382C42.019 56.3335 41.9971 56.3336 41.9761 56.3384C37.8345 57.3276 33.5905 57.8234 29.3324 57.8156C22.0045 57.8156 20.0336 54.3384 19.4693 52.8908C19.0156 51.6397 18.7275 50.3346 18.6124 49.0088C18.6112 48.9866 18.6153 48.9643 18.6243 48.9439C18.6333 48.9236 18.647 48.9056 18.6643 48.8915C18.6816 48.8774 18.7019 48.8675 18.7237 48.8628C18.7455 48.858 18.7681 48.8585 18.7897 48.8641C22.8622 49.8465 27.037 50.3423 31.2265 50.3412C32.234 50.3412 33.2387 50.3412 34.2463 50.3146C38.4598 50.1964 42.9009 49.9808 47.0465 49.1713C47.1499 49.1506 47.2534 49.1329 47.342 49.1063C53.881 47.8507 60.1038 43.9097 60.7362 33.9301C60.7598 33.5372 60.8189 29.8148 60.8189 29.4071C60.8218 28.0215 61.2651 19.5781 60.7539 14.3904Z" fill="url(#paint0_linear_89_8)"/>
<path d="M50.3943 22.237V39.5876H43.5185V22.7481C43.5185 19.2029 42.0411 17.3949 39.036 17.3949C35.7325 17.3949 34.0778 19.5338 34.0778 23.7585V32.9759H27.2434V23.7585C27.2434 19.5338 25.5857 17.3949 22.2822 17.3949C19.2949 17.3949 17.8027 19.2029 17.8027 22.7481V39.5876H10.9298V22.237C10.9298 18.6918 11.835 15.8754 13.6453 13.7877C15.5128 11.7049 17.9623 10.6355 21.0028 10.6355C24.522 10.6355 27.1813 11.9885 28.9542 14.6917L30.665 17.5633L32.3788 14.6917C34.1517 11.9885 36.811 10.6355 40.3243 10.6355C43.3619 10.6355 45.8114 11.7049 47.6847 13.7877C49.4931 15.8734 50.3963 18.6899 50.3943 22.237Z" fill="white"/>
<defs>
<linearGradient id="paint0_linear_89_8" x1="30.5" y1="0" x2="30.5" y2="65" gradientUnits="userSpaceOnUse">
<stop stop-color="#6364FF"/>
<stop offset="1" stop-color="#563ACC"/>
</linearGradient>
</defs>
</svg>

<svg xmlns="http://www.w3.org/2000/svg" width="65" height="65" viewBox="0 0 61 65" fill="none"><path d="M60.754 14.39C59.814 7.406 53.727 1.903 46.512.836 45.294.656 40.682 0 29.997 0h-.08C19.23 0 16.938.656 15.72.836 8.705 1.873 2.299 6.82.745 13.886c-.748 3.48-.828 7.338-.689 10.877.198 5.075.237 10.142.697 15.197a71.482 71.482 0 0 0 1.664 9.968c1.477 6.056 7.458 11.096 13.317 13.152a35.718 35.718 0 0 0 19.484 1.028 28.365 28.365 0 0 0 2.107-.576c1.572-.5 3.413-1.057 4.766-2.038a.154.154 0 0 0 .062-.118v-4.899a.146.146 0 0 0-.055-.111.145.145 0 0 0-.122-.028 54 54 0 0 1-12.644 1.478c-7.328 0-9.298-3.478-9.863-4.925a15.258 15.258 0 0 1-.857-3.882.142.142 0 0 1 .178-.145 52.976 52.976 0 0 0 12.437 1.477c1.007 0 2.012 0 3.02-.026 4.213-.119 8.654-.334 12.8-1.144.103-.02.206-.038.295-.065 6.539-1.255 12.762-5.196 13.394-15.176.024-.393.083-4.115.083-4.523.003-1.386.446-9.829-.065-15.017Z" fill="url(#a)"/><path d="M50.394 22.237v17.35H43.52V22.749c0-3.545-1.478-5.353-4.483-5.353-3.303 0-4.958 2.139-4.958 6.364v9.217h-6.835v-9.217c0-4.225-1.657-6.364-4.96-6.364-2.988 0-4.48 1.808-4.48 5.353v16.84H10.93V22.237c0-3.545.905-6.362 2.715-8.45 1.868-2.082 4.317-3.152 7.358-3.152 3.519 0 6.178 1.354 7.951 4.057l1.711 2.871 1.714-2.871c1.773-2.704 4.432-4.056 7.945-4.056 3.038 0 5.487 1.069 7.36 3.152 1.81 2.085 2.712 4.902 2.71 8.449Z" fill="#fff"/><defs><linearGradient id="a" x1="30.5" y1="0" x2="30.5" y2="65" gradientUnits="userSpaceOnUse"><stop stop-color="#6364FF"/><stop offset="1" stop-color="#563ACC"/></linearGradient></defs></svg>
